packages/assets/static/images/icons/police-car.svg

<svg width="24" height="24" viewBox="0 0 24 24" xmlns="http://www.w3.org/2000/svg">
<path d="M22.5 10.875H21.435L18.8672 6.38063C18.736 6.15109 18.5464 5.9603 18.3178 5.82761C18.0891 5.69491 17.8294 5.62501 17.565 5.625H6.435C6.17061 5.62501 5.91092 5.69491 5.68224 5.82761C5.45356 5.9603 5.26402 6.15109 5.13281 6.38063L2.565 10.875H1.5C1.30109 10.875 1.11032 10.954 0.96967 11.0947C0.829018 11.2353 0.75 11.4261 0.75 11.625C0.75 11.8239 0.829018 12.0147 0.96967 12.1553C1.11032 12.296 1.30109 12.375 1.5 12.375H2.25V19.875C2.25 20.2728 2.40804 20.6544 2.68934 20.9357C2.97064 21.217 3.35218 21.375 3.75 21.375H6C6.39782 21.375 6.77936 21.217 7.06066 20.9357C7.34196 20.6544 7.5 20.2728 7.5 19.875V18.375H16.5V19.875C16.5 20.2728 16.658 20.6544 16.9393 20.9357C17.2206 21.217 17.6022 21.375 18 21.375H20.25C20.6478 21.375 21.0294 21.217 21.3107 20.9357C21.592 20.6544 21.75 20.2728 21.75 19.875V12.375H22.5C22.6989 12.375 22.8897 12.296 23.0303 12.1553C23.171 12.0147 23.25 11.8239 23.25 11.625C23.25 11.4261 23.171 11.2353 23.0303 11.0947C22.8897 10.954 22.6989 10.875 22.5 10.875ZM6.435 7.125H17.565L19.7072 10.875H4.29281L6.435 7.125ZM6 19.875H3.75V18.375H6V19.875ZM18 19.875V18.375H20.25V19.875H18ZM20.25 16.875H3.75V12.375H20.25V16.875ZM5.25 14.625C5.25 14.4261 5.32902 14.2353 5.46967 14.0947C5.61032 13.954 5.80109 13.875 6 13.875H7.5C7.69891 13.875 7.88968 13.954 8.03033 14.0947C8.17098 14.2353 8.25 14.4261 8.25 14.625C8.25 14.8239 8.17098 15.0147 8.03033 15.1553C7.88968 15.296 7.69891 15.375 7.5 15.375H6C5.80109 15.375 5.61032 15.296 5.46967 15.1553C5.32902 15.0147 5.25 14.8239 5.25 14.625ZM15.75 14.625C15.75 14.4261 15.829 14.2353 15.9697 14.0947C16.1103 13.954 16.3011 13.875 16.5 13.875H18C18.1989 13.875 18.3897 13.954 18.5303 14.0947C18.671 14.2353 18.75 14.4261 18.75 14.625C18.75 14.8239 18.671 15.0147 18.5303 15.1553C18.3897 15.296 18.1989 15.375 18 15.375H16.5C16.3011 15.375 16.1103 15.296 15.9697 15.1553C15.829 15.0147 15.75 14.8239 15.75 14.625ZM9 3.375C9 3.17609 9.07902 2.98532 9.21967 2.84467C9.36032 2.70402 9.55109 2.625 9.75 2.625H14.25C14.4489 2.625 14.6397 2.70402 14.7803 2.84467C14.921 2.98532 15 3.17609 15 3.375C15 3.57391 14.921 3.76468 14.7803 3.90533C14.6397 4.04598 14.4489 4.125 14.25 4.125H9.75C9.55109 4.125 9.36032 4.04598 9.21967 3.90533C9.07902 3.76468 9 3.57391 9 3.375Z"/>
</svg>

<svg viewBox="0 0 24 24" xmlns="http://www.w3.org/2000/svg" aria-hidden="true" fill="currentColor"><path d="M22.5 10.875h-1.065l-2.568-4.494a1.5 1.5 0 0 0-1.302-.756H6.435a1.5 1.5 0 0 0-1.302.756l-2.568 4.494H1.5a.75.75 0 1 0 0 1.5h.75v7.5a1.5 1.5 0 0 0 1.5 1.5H6a1.5 1.5 0 0 0 1.5-1.5v-1.5h9v1.5a1.5 1.5 0 0 0 1.5 1.5h2.25a1.5 1.5 0 0 0 1.5-1.5v-7.5h.75a.75.75 0 1 0 0-1.5M6.435 7.125h11.13l2.142 3.75H4.293zM6 19.875H3.75v-1.5H6zm12 0v-1.5h2.25v1.5zm2.25-3H3.75v-4.5h16.5zm-15-2.25a.75.75 0 0 1 .75-.75h1.5a.75.75 0 1 1 0 1.5H6a.75.75 0 0 1-.75-.75m10.5 0a.75.75 0 0 1 .75-.75H18a.75.75 0 1 1 0 1.5h-1.5a.75.75 0 0 1-.75-.75M9 3.375a.75.75 0 0 1 .75-.75h4.5a.75.75 0 1 1 0 1.5h-4.5a.75.75 0 0 1-.75-.75"/></svg>
